/* XPM */
static char * west_xpm[] = {
"64 64 2 1",
"  c #D3D3D3",
". c #000000",
/* checkerboard pattern */
" ........................................................................",
" ........................................................................",
" ........................................................................",
" ........................................................................",
" ........................................................................",
" ........................................................................",
" ........................................................................",
" ........................................................................",
" ........................................................................",
" ........................................................................",
" ........................................................................",
" ........................................................................",
" ........................................................................",
" ........................................................................",
" ........................................................................",
" ........................................................................",
" ........................................................................",
" ........................................................................",
" ........................................................................",
" ........................................................................",
" ........................................................................",
" ........................................................................",
" ........................................................................",
" ........................................................................",
" ........................................................................",
" ........................................................................",
" ........................................................................",
" ........................................................................",
" ........................................................................",
" ........................................................................",
" ........................................................................",
" ........................................................................",
" ........................................................................",
" ........................................................................",
" ........................................................................",
" ........................................................................",
" ........................................................................",
" ........................................................................",
" ........................................................................",
" ........................................................................",
" ........................................................................",
" ........................................................................",
" ........................................................................",
" ........................................................................",
" ........................................................................",
" ........................................................................",
" ........................................................................",
" ........................................................................",
" ........................................................................",
" ........................................................................",
" ........................................................................",
" ........................................................................",
" ........................................................................",
" ........................................................................",
" ........................................................................",
" ........................................................................",
" ........................................................................",
" ........................................................................",
" ........................................................................",
" ........................................................................",
" ........................................................................",
" ........................................................................",
" ........................................................................"
};
